X:1
T:Glory to God in the Highest
T:Glory to God in the Highest
T:J. S. Boyd
T:J. S. Boyd, 1912
T:Public Domain Courtesy of the Cyber Hymnal™
T:Public Domain Courtesy of the Cyber Hymnal™
C:J. S. Boyd
Z:Public Domain
Z:Courtesy of the Cyber Hymnal™
%%score ( 1 2 ) ( 3 4 )
L:1/8
Q:1/4=115
M:4/4
K:C
V:1 treble 
V:2 treble 
V:3 bass 
V:4 bass 
V:1
 C2 | [CE]2 C2 [CE]2 [EG]2 | [EG]6 [CA]2 | [CG]2 [B,F]2 [CE]2 [B,D]2 | [CE]6 C2 | %5
w: 1.~Glad|songs of praise were|giv’n To|Him who came to|earth, When|
w: 2.~Then|clap your hands, ye|trees, Ye|lit- tle rills re-|joice; Yea,|
w: 3.~With|glad- ness serve the|Lord, Be-|fore His pre- sence|sing, O|
w: 4.~Ye|glo- ri- fied a-|bove, While|end- less ag- es|run, Pro-|
 C2 [CE]2 [CE]2 [EG]2 | [EG]2 [Fc]2 [Ec]2 [DB]2 | [Cc]2 [CA]2 (GA) (GE) | [B,D]6 || %9
w: shep- herds heard the|choirs of Heav’n Pro-|claim the Sav- * ior’s *|birth.|
w: sun and moon and|hills and seas, Raise|na- ture’s mean- * ing *|voice.|
w: all the earth with|one ac- cord, A-|dore our Heav’n- * born *|king.|
w: claim a- loud the|Fa- ther’s love, For|giv- ing Christ, * His *|Son.|
"^Refrain" [B,E][B,D] | C2 CC E2 DC | G2 G2 z4 | [DG]2 [DG][DG] [GB]2 [FA][FG] | [Fd]2 [Ec]2 z4 | %14
w: |||||
w: Sing- ing|“Glo- ry to God in the|high- est!|Glo- ry to God in the|high- est!|
w: |||||
w: |||||
 [Ge]2 [Ge][Ge] [Af]2 [Ge][Ge] | [Gd]4 [Ge]2 [Fd]2 | ([Ec]2 [FB]2 [Gc]2) [FA]2 | G4 c4 | %18
w: ||||
w: Glo- ry to God in the|high- est, And|peace * * on|earth, Good|
w: ||||
w: ||||
 (A2 B2) ([Gc]2 [FA]2) | G6 [EG]2 | [FA]6 [Fc]2 | [EG]6 [CE]2 | [B,D]6 [DF]2 | [CE]6 [EG]2 | %24
w: ||||||
w: will * tow’rd *|men, And|peace on|earth, Good|will tow’rd|men; And|
w: ||||||
w: ||||||
 (A3 G A2) [FB]2 | [Ec]6 G2 | (AB) ([Gc][Ad]) !>![Ge]2 !>![Fd]2 | c6 F |] %28
w: ||||
w: peace * * on|earth, Good|will, * good * will tow’rd|men.” *|
w: ||||
w: ||||
V:2
 C2 | x2 C2 x4 | x8 | x8 | x6 C2 | C2 x6 | x8 | x4 C2 C2 | x6 || x2 | C2 CC E2 DC | G2 G2 x4 | x8 | %13
 x8 | x8 | x8 | x8 | (E2 F2) (G2 E2) | F4 x4 | (E2 E2 E2) x2 | x8 | x8 | x8 | x8 | C6 x2 | x6 G2 | %26
 F2 x6 | E2 F E2 x2 |] %28
V:3
 [C,E,]2 | [C,G,]2 [C,E,]2 [C,G,]2 [C,C]2 | [C,C]6 [F,C]2 | [E,C]2 [D,G,]2 [C,G,]2 [G,,G,]2 | %4
w: ||||
 [C,G,]6 [C,E,]2 | [C,E,]2 [C,G,]2 [C,G,]2 [C,C]2 | [C,C]2 [C,A,]2 [C,G,]2 [F,G,]2 | %7
w: |||
 [E,G,]2 (A,C) C2 ([E,C][C,G,]) | [G,,G,]6 || [G,,G,][G,,G,] | C,2 C,C, E,2 D,C, | %11
w: * * * Glo- * *|||* * * ry, Glo- ry,|
 G,2 G,2 G,2 G,2 | [G,B,]2 [G,B,][G,B,] [G,D]2 [G,C][G,B,] | C2 C2 G,2 G,2 | C2 CC C2 CC | %15
w: good will And peace||earth, good will tow’rd|men, And peace on earth, good|
 [G,B,]4 C2 [G,B,]2 | G,4 [E,C]2 [F,C]2 | C4 C4 | ([F,C]2 [D,G,]2) C4 | %19
w: * will *|tow’rd * *|* men.|* * to-|
 [C,C]2 [C,G,]2 [C,G,]2 [C,C]2 | [F,C]2 [F,C]2 [F,C]2 [A,C]2 | C2 C2 C2 [C,G,]2 | %22
w: * ward men *|||
 [G,,G,]2 [G,,G,]2 [G,,G,]2 [G,,G,]2 | [C,G,]2 [C,G,]2 [C,G,]2 [C,G,]2 | F,3 [E,G,] F,2 [D,G,]2 | %25
w: |||
 [C,F,]6 [E,C]2 | [F,C]2 C2 !>![G,D]2 !>![G,,G,]2 | G,2 A,A, G,2 x |] %28
w: |||
V:4
 x2 | x8 | x8 | x8 | x8 | x8 | x8 | x2 F,2 (E,F,) x2 | x6 || x2 | C,2 C,C, E,2 D,C, | %11
w: |||||||||||
 G,2 G,2 G,2 G,2 | x8 | C2 C2 G,2 G,2 | C2 CC C2 CC | x4 C2 x2 | C,2 D,2 x4 | (C,2 D,2) (E,2 C,2) | %18
w: * * * on|||||||
 x4 (E,2 F,2) | x8 | x8 | C2 C2 C2 x2 | x8 | x8 | F,3 F,2 x3 | x8 | x2 (E,F,) x4 | C,6 x |] %28
w: ||||||||||

